!!!COM: Ezekiel, Ymesei O.
!!!CDT: 1926-1984
!!!OTL: National Anthem, Palau
!!!ENC: Davis, Matthew J.
!!Vocal Line Only
**kern
*clefG2
*k[b-e-a-]
*E-:
*M4/4
=1-
2e-
4e-
4g
=2
4b-
4cc
2b-
=3
2g
4f
4e-
=4
2.f
4r
=5
2g
4f
4e-
=6
4a-
4cc
2b-
=7
2f
4g
4f
=8
2.e-
4r
=9
4.cc
8cc
4ee-
4cc
=10
4b-
4g
2b-
=11
2g
4f
4e-
=12
2.b-
4r
=13
2e-
4e-
4g
=14
4b-
4cc
4b-
4a-
=15
1g
=16
1f
=17
2.e-
4r
==|!
*-
